assets/svg/Delivery.svg

<svg width="24" height="24" fill="none" xmlns="http://www.w3.org/2000/svg">
    <mask id="a" style="mask-type:alpha" maskUnits="userSpaceOnUse" x="0" y="0" width="24" height="24">
        <path fill="#D9D9D9" d="M0 0h24v24H0z"/>
    </mask>
    <g mask="url(#a)">
        <path d="m10 9.75 2-1 2 1V5h-4v4.75ZM7 17v-2h5v2H7Zm-2 4c-.55 0-1.021-.196-1.413-.587A1.928 1.928 0 0 1 3 19V5c0-.55.196-1.021.587-1.413A1.928 1.928 0 0 1 5 3h14c.55 0 1.021.196 1.413.587.391.392.587.863.587 1.413v14c0 .55-.196 1.021-.587 1.413A1.928 1.928 0 0 1 19 21H5Zm0-2h14V5h-3v8l-4-2-4 2V5H5v14Z" fill="#081B31"/>
    </g>
</svg>

<svg width="24" height="24" viewBox="0 0 24 24" fill="none" xmlns="http://www.w3.org/2000/svg">
<mask id="mask0_3_120" style="mask-type:alpha" maskUnits="userSpaceOnUse" x="0" y="0" width="24" height="24">
<rect width="24" height="24" fill="#D9D9D9"/>
</mask>
<g mask="url(#mask0_3_120)">
<path d="M10 9.75L12 8.75L14 9.75V5H10V9.75ZM7 17V15H12V17H7ZM5 21C4.45 21 3.979 20.8043 3.587 20.413C3.19567 20.021 3 19.55 3 19V5C3 4.45 3.19567 3.979 3.587 3.587C3.979 3.19567 4.45 3 5 3H19C19.55 3 20.021 3.19567 20.413 3.587C20.8043 3.979 21 4.45 21 5V19C21 19.55 20.8043 20.021 20.413 20.413C20.021 20.8043 19.55 21 19 21H5ZM5 19H19V5H16V13L12 11L8 13V5H5V19Z" fill="#081B31"/>
</g>
</svg>
